src/16/actions/database-index.svg

<svg xmlns="http://www.w3.org/2000/svg" width="16" height="16" viewBox="0 0 16 16">
 <defs>
  <style id="current-color-scheme" type="text/css">
   .ColorScheme-Text { color:#565656; } .ColorScheme-Highlight { color:#5294e2; }
  </style>
 </defs>
 <path style="fill:currentColor" class="ColorScheme-Text" d="m1 1v2h2v-2h-2zm3 0v2h5v-2h-5zm8 2l-5 7h3v5l5-7h-3v-5zm-11 1v2h2v-2h-2zm3 0v2h5v-2h-5zm-3 3v2h2v-2h-2zm3 0v2h3v-2h-3z"/>
</svg>

<svg xmlns="http://www.w3.org/2000/svg" width="16" height="16"><defs><style id="current-color-scheme" type="text/css"></style></defs><path d="M1 1v2h2V1H1zm3 0v2h5V1H4zm8 2l-5 7h3v5l5-7h-3V3zM1 4v2h2V4H1zm3 0v2h5V4H4zM1 7v2h2V7H1zm3 0v2h3V7H4z" fill="currentColor" color="#565656"/></svg>
